contents/images/accountability.svg

<svg height="72" viewBox="0 0 72 72" width="72" xmlns="http://www.w3.org/2000/svg"><g fill="none" fill-rule="evenodd"><rect fill="#79e2f2" height="72" rx="36" width="72"/><g transform="translate(19 16)"><path d="m34 40h-33c-.608 0-1-.3869091-1-1v-36c0-.61309091.392-1 1-1h33c.608 0 1 .38690909 1 1v36c0 .6130892-.392 1-1 1z" fill="#6553c0"/><path d="m30.4347826 36.5217391h-26.08695651c-.48 0-.86956522-.3895652-.86956522-.8695652v-29.56521738c0-.48.38956522-.86956522.86956522-.86956522h26.08695651c.48 0 .8695652.38956522.8695652.86956522v29.56521738c0 .4799983-.3895652.8695652-.8695652.8695652z" fill="#e6fcff"/><path d="m24.6763285 9h-3.5555556c-.4906666 0-.8888888-.3584-.8888888-.8 0-1.3232-1.1964445-2.4-2.6666667-2.4s-2.6666667 1.0768-2.6666667 2.4c0 .4416-.3982222.8-.8888889.8h-3.5555555c-.49066669 0-.88888891-.3584-.88888891-.8v-7.4c0-.4416.39822222-.8.88888891-.8h14.2222222c.4906667 0 .8888889.3584.8888889.8v7.4c0 .4416-.3982222.8-.8888889.8z" fill="#998dd9"/><g fill="#403294"><path d="m23.2173913 14.7826087h-13.65217391c-.48086956 0-.86956522-.3895652-.86956522-.8695652s.38869566-.8695652.86956522-.8695652h13.65217391c.4808696 0 .8695652.3895652.8695652.8695652s-.3886956.8695652-.8695652.8695652z"/><path d="m25.2173913 21.7391304h-15.65217391c-.48086956 0-.86956522-.3895652-.86956522-.8695652s.38869566-.8695652.86956522-.8695652h15.65217391c.4808696 0 .8695652.3895652.8695652.8695652s-.3886956.8695652-.8695652.8695652z"/><path d="m23.2173913 28.6956522h-13.65217391c-.48086956 0-.86956522-.3895652-.86956522-.8695652s.38869566-.8695653.86956522-.8695653h13.65217391c.4808696 0 .8695652.3895653.8695652.8695653s-.3886956.8695652-.8695652.8695652z"/></g></g></g></svg>

<?xml version="1.0" encoding="UTF-8"?>
<svg width="72px" height="72px" viewBox="0 0 72 72" version="1.1" xmlns="http://www.w3.org/2000/svg" xmlns:xlink="http://www.w3.org/1999/xlink">
    <!-- Generator: Sketch 47.1 (45422) - http://www.bohemiancoding.com/sketch -->
    <title>accountability</title>
    <desc>Created with Sketch.</desc>
    <defs></defs>
    <g id="Symbols" stroke="none" stroke-width="1" fill="none" fill-rule="evenodd">
        <g id="accountability">
            <rect id="Rectangle-3" fill="#79E2F2" x="0" y="0" width="72" height="72" rx="36"></rect>
            <g id="Page-1" transform="translate(19.000000, 16.000000)">
                <path d="M34,40 L1,40 C0.392,40 0,39.6130909 0,39 L0,3 C0,2.38690909 0.392,2 1,2 L34,2 C34.608,2 35,2.38690909 35,3 L35,39 C35,39.6130892 34.608,40 34,40 Z" id="Fill-1" fill="#6553C0"></path>
                <path d="M30.4347826,36.5217391 L4.34782609,36.5217391 C3.86782609,36.5217391 3.47826087,36.1321739 3.47826087,35.6521739 L3.47826087,6.08695652 C3.47826087,5.60695652 3.86782609,5.2173913 4.34782609,5.2173913 L30.4347826,5.2173913 C30.9147826,5.2173913 31.3043478,5.60695652 31.3043478,6.08695652 L31.3043478,35.6521739 C31.3043478,36.1321722 30.9147826,36.5217391 30.4347826,36.5217391 Z" id="Fill-3" fill="#E6FCFF"></path>
                <path d="M24.6763285,9 L21.1207729,9 C20.6301063,9 20.2318841,8.6416 20.2318841,8.2 C20.2318841,6.8768 19.0354396,5.8 17.5652174,5.8 C16.0949952,5.8 14.8985507,6.8768 14.8985507,8.2 C14.8985507,8.6416 14.5003285,9 14.0096618,9 L10.4541063,9 C9.96343961,9 9.56521739,8.6416 9.56521739,8.2 L9.56521739,0.8 C9.56521739,0.3584 9.96343961,0 10.4541063,0 L24.6763285,0 C25.1669952,0 25.5652174,0.3584 25.5652174,0.8 L25.5652174,8.2 C25.5652174,8.6416 25.1669952,9 24.6763285,9 Z" id="Fill-4" fill="#998DD9"></path>
                <path d="M23.2173913,14.7826087 L9.56521739,14.7826087 C9.08434783,14.7826087 8.69565217,14.3930435 8.69565217,13.9130435 C8.69565217,13.4330435 9.08434783,13.0434783 9.56521739,13.0434783 L23.2173913,13.0434783 C23.6982609,13.0434783 24.0869565,13.4330435 24.0869565,13.9130435 C24.0869565,14.3930435 23.6982609,14.7826087 23.2173913,14.7826087 Z" id="Fill-5" fill="#403294"></path>
                <path d="M25.2173913,21.7391304 L9.56521739,21.7391304 C9.08434783,21.7391304 8.69565217,21.3495652 8.69565217,20.8695652 C8.69565217,20.3895652 9.08434783,20 9.56521739,20 L25.2173913,20 C25.6982609,20 26.0869565,20.3895652 26.0869565,20.8695652 C26.0869565,21.3495652 25.6982609,21.7391304 25.2173913,21.7391304 Z" id="Fill-6" fill="#403294"></path>
                <path d="M23.2173913,28.6956522 L9.56521739,28.6956522 C9.08434783,28.6956522 8.69565217,28.306087 8.69565217,27.826087 C8.69565217,27.346087 9.08434783,26.9565217 9.56521739,26.9565217 L23.2173913,26.9565217 C23.6982609,26.9565217 24.0869565,27.346087 24.0869565,27.826087 C24.0869565,28.306087 23.6982609,28.6956522 23.2173913,28.6956522 Z" id="Fill-7" fill="#403294"></path>
            </g>
        </g>
    </g>
</svg>
